X:151
T: AUS DEM HIMMEL FERNE
N: B0642
O: Europa, Mitteleuropa, Deutschland
R: Kinder - Lied, religioes
M: 4/4
L: 1/8
K: C
 | G2G2A3G | G4E4 |
E2C2F2E2 | D6z2 |
D3DC2C2 | F4E4 |
A2F2E2D2 | C6z2

@@@ Tune index: 2369
